cy/building-solid-alerted.svg

<svg viewBox="0 0 36 36" xmlns="http://www.w3.org/2000/svg" height="1em" width="1em">
  <path d="M17.88 3H6.12A2.12 2.12 0 0 0 4 5.12V33h5v-3h6v3h5V14.64a3.67 3.67 0 0 1-1-4.76l1-1.65V5.12A2.12 2.12 0 0 0 17.88 3ZM9 25H7v-2h2Zm0-5H7v-2h2Zm0-5H7v-2h2Zm0-5H7V8h2Zm4 15h-2v-2h2Zm0-5h-2v-2h2Zm0-5h-2v-2h2Zm0-5h-2V8h2Zm4 15h-2v-2h2Zm0-5h-2v-2h2Zm0-5h-2v-2h2Zm0-5h-2V8h2Z" class="clr-i-solid--alerted clr-i-solid-path-1--alerted"/>
  <path d="M22.23 15.4H22V33h11V15.4ZM26 25h-2v-2h2Zm0-5h-2v-2h2Zm4 5h-2v-2h2Zm0-5h-2v-2h2Z" class="clr-i-solid--alerted clr-i-solid-path-2--alerted"/>
  <path d="M26.85 1.14 21.13 11a1.28 1.28 0 0 0 1.1 2h11.45a1.28 1.28 0 0 0 1.1-2l-5.72-9.86a1.28 1.28 0 0 0-2.21 0Z" class="clr-i-solid--alerted clr-i-solid-path-3--alerted clr-i-alert"/>
  <path fill="none" d="M0 0h36v36H0z"/>
</svg>

<svg version="1.1" viewBox="0 0 36 36" preserveAspectRatio="xMidYMid meet" xmlns="http://www.w3.org/2000/svg" height="1em" width="1em">
  <path d="M17.88,3H6.12A2.12,2.12,0,0,0,4,5.12V33H9V30h6v3h5V14.64a3.67,3.67,0,0,1-1-4.76l1-1.65V5.12A2.12,2.12,0,0,0,17.88,3ZM9,25H7V23H9Zm0-5H7V18H9Zm0-5H7V13H9Zm0-5H7V8H9Zm4,15H11V23h2Zm0-5H11V18h2Zm0-5H11V13h2Zm0-5H11V8h2Zm4,15H15V23h2Zm0-5H15V18h2Zm0-5H15V13h2Zm0-5H15V8h2Z" class="clr-i-solid--alerted clr-i-solid-path-1--alerted"/>
  <path d="M22.23,15.4l-.23,0V33H33V15.4ZM26,25H24V23h2Zm0-5H24V18h2Zm4,5H28V23h2Zm0-5H28V18h2Z" class="clr-i-solid--alerted clr-i-solid-path-2--alerted"/>
  <path d="M26.85,1.14,21.13,11A1.28,1.28,0,0,0,22.23,13H33.68A1.28,1.28,0,0,0,34.78,11L29.06,1.14A1.28,1.28,0,0,0,26.85,1.14Z" class="clr-i-solid--alerted clr-i-solid-path-3--alerted clr-i-alert"/>
  <rect x="0" y="0" width="36" height="36" fill-opacity="0"/>
</svg>
